X:1
T:Ferma il piede
T:Ferma il piede
T:Barbara Strozzi
T:Source : Arie---Venetia---F.Magni (Gardano)---1664. Editor : André Vierendeels (19/03/15).
T:Notes : Original clefs : C1, F4 (C3 ,C4) BC from m17 to m22, notated in C3 BC from m55 to m59, notated in C4 BC from m60 to m63, notated in C3 BC from m64 to m66, notated in C4 Dotted brackets indicate black notes   
C:Barbara Strozzi
%%score 1 2
L:1/8
Q:1/4=96
M:3/2
K:C
V:1 treble nm="Soprano" snm="S"
V:2 bass nm="BC" snm="BC"
V:1
 z4 e4 e4 | e4 d2 c2 B2 d2 | c4 A4 A4 | A4 G2 ^F2 E2 G2 | ^F4 B2 c2 A2 B2 | ^G4 e4 e4 | %6
w: Fer- ma'il|pie- de, _ _ _|_ fer- ma'il|pie- de, _ _ _|_ _ _ _ _|* fer- ma'il|
w: Fer- ma'il|pie- de, _ _ _|_ fer- ma'il|pie- de, _ _ _|_ _ _ _ _|* fer- ma'il|
 e4 d2 c2 B2 d2 | c4 f2 g2 e2 f2 | d4 B2 c2 A2 B2 | ^G4 A4 e4 | d2 c2 B8 | A12 | z4 c4 c4 | %13
w: pie- de, _ _ _|_ O _ _ _|_ _ _ _ _|* tra- di-|to- * *|re,|non t'av-|
w: pie- de, _ _ _|_ O _ _ _|_ _ _ _ _|* tra- di-|to- * *|re,|ma se|
 c4 B2 A2 G4 | A4 B8 | c2 B2 A2 B2 c2 d2 | e4 d8 | e4 f8 | g2 f2 e2 d2 c2 B2 | c4 G8 | A4 B8 | %21
w: ve- di _ _|ch'al miei|dan- * * * * *|* ni|tes- s'in-|gan- * * * * *|* ni|per traf-|
w: ten- ti la boc-|ca cer-|ch'in- * * * * *|sie- me'l|tuo pe-|ri- * * * * *|re, poi|ch'il ciel|
 c2 B2 A2 B2 c2 d2 | e2 d2 c2 d2 e2 f2 | g4 G4 c4 | A4 B4 c4 | f2 e2 d8 | c12 | z4 e4 e4 | %28
w: fi- * * * * *||* ger _|il _ mio|co- * *|re,|fer- ma'il|
w: ful- * * * * *||* mi- ni|scoc- * *||cha,|fer- ma'il|
 e4 d2 c2 B2 d2 | c4 A4 A4 | A4 G2 F2 E2 G2 | ^F4 B2 c2 A2 B2 | ^G4 e4 e4 | e4 d2 c2 B2 d2 | %34
w: pie- de, _ _ _|_ fer- ma'il|pie- de, _ _ _|_ _ _ _ _|* fer- ma'il|pie- de _ _ _|
w: pie- de, _ _ _|_ fer- ma'il|pie- de, _ _ _|_ _ _ _ _|* fer- ma'il|pie- de _ _ _|
 c4 f2 g2 e2 f2 | d4 B2 c2 A2 B2 | ^G4 A4 e4 | d2 c2 B8 | A12!fine! ::[M:4/4] cd ef gG AB | %40
w: _ o _ _ _|_ _ _ _ _|* tra- di-|to- * *|re.|ne _ gl'a- * vo- * ri _|
w: _ o _ _ _|_ _ _ _ _|* tra- di-|to- * *|re,|con- * * * un, _ ch'u- *|
 cA dc B>A G2 | BA Bc de fg | ^cAde fg/f/ e2 | d4 AG AB | cB AB cB cd | e d/c/ B/A/G/F/ E4 | %46
w: di _ quel _ se- no _|sta _ la _ gio- * ia _|del _ mio af- fet- * * *|to, se _ t'ac- *|co- * sti'in _ un _ ba- *|le- * * * * * * no,|
w: sa _ tra- * di- * re|e _ piu _ fie- * ri _|gl'a- * ven- ta con- * * *|tr'o- gni _ cor, _|che _ ten- * ta _ d'in- *|gan- * * * * * * nar|
 ed eB c2 c2 | dc d^F ^G2 G2 | A4 A4 | B4 B4 | z d cB c2 B2 | A8- | A8 | z2 Ac Bd ce | %54
w: tu _ mi _ rub- bi,|tu _ mi _ rub- bi,|il cor,|il cor|dal _ _ pet- *|to,|_|dun- * que _ trop- *|
w: chi'è _ le- * ga- to'in,|ch'iè _ le- * ga- to'in|man- d'A-|mo- re,||||e _ piu _ _ _|
 de fg e c/d/ ee/f/ | g2 Gc Ad Be | cf dg c2 de | f/e/f/g/ f2 e2 E^F | GA Bc d2 AB | cd ef g2 ^fe | %60
w: po _ m'of- * fen- di _ _ _ _|_ se _ qual _ A- *|* * * * * pe pre-|ten- * * * * di per mio|mal _ _ _ _ per mio|mal _ _ _ _ di suc-|
w: fie- * * * ri gl'a- * * * *|* ven- * * * * *|* * * * * ta con-|tr'o- * * * gni cor, che ten-|ta _ _ _ _ d'in- gan-|nar _ _ _ _ chi è|
 ^dB e2 e3 ^f | ^dB e^f ga/g/ f2 | e2 GA Bc de | f2 BA ^GE e2 | A2 d2 ^GE Ae | cd/c/ B2 A4!D.C.! :| %66
w: chiar _ il mio, il|mi- o bel _ fio- * * *|re, per mio mal _ _ _|_ di suc- chiar _ il|mio, il mi- o bel _|fio- * * * re.|
w: le- * ga- to'in _|man d'A- mo- * * * * *|re, che ten- ta _ _ _|_ d'in gan- nar _ chi'è|le- ga- to'in man d'A- *|mo- * * * re.|
V:2
 A,,8 B,,4 | C,4 D,4 E,4 | A,4 A,,4 B,,4 | ^C,12 | D,4 ^D,8 | E,8 ^F,4 | ^G,12 | A,8 F,4 | %8
 G,8 F,4 | E,4 F,4 C,4 | D,4 E,8 | A,,8 B,,4 | C,8 D,4 | E,12 | F,8 G,4 | A,8 B,4 | C8 B,4 | %17
 C8 D4 | E4 F4 G4 | A8 E4 | F8 D4 | C8 B,4 | A,4 G,4 F,4 | E,12 | F,4 G,4 A,4 | F,4 G,8 | %26
 C,8 B,,4 | A,,8 B,,4 | C,4 D,4 E,4 | A,4 A,,4 B,,4 | ^C,12 | D,4 ^D,8 | E,8 ^F,4 | ^G,12 | %34
 A,8 F,4 | G,8 F,4 | E,4 F,4 C,4 | D,4 E,8 | A,,12 ::[M:4/4] A,,4 G,,4- | G,,2 ^F,,2 G,,4 | %41
 G,F, E,2 D,C, _B,,G,, | A,,G,, F,,2 G,,2 A,,2 | D,2 C,/D,/E, F,E, F,G, | A,G, F,G, A,G, A,F, | %45
 E,4 E,D, E,B,, | C,2 ^G,2 A,G, A,E, | F,2 D,2 E,D, E,B,, | CB, C^G, A,G, A,E, | %49
 F,E, F,C, D,C, D,E, | F,2 D,2 E,4 | A,G, A,E, F,E, F,C, | D,C, D,A,, E,D, E,E,, | %53
 A,,2 A,2 ^G,2 A,C | B,C DE C3 C,/D,/ | E,E,/F,/ G,E, F,2 G,2 | A,2 B,2 CB, A,G, | %57
 F,2 G,2 C,2 C,D, | E,^F, G,A, B,C D2 | A,B, CD E^F GA | BA G^F ED CA, | B,A, G,A, B,2 B,,2 | %62
 E,2 E,^F, G,A, B,C | DE F2 ED CA, | FE DB, ED C2 | D2 E2 A,4 :| %66

